blockchains/ethereum/assets/0xe28b3B32B6c345A34Ff64674606124Dd5Aceca30/logo.svg

<svg fill="none" height="250" viewBox="0 0 250 250" width="250" xmlns="http://www.w3.org/2000/svg" xmlns:xlink="http://www.w3.org/1999/xlink"><linearGradient id="a"><stop offset="0" stop-color="#0082fa"/><stop offset="1" stop-color="#00f2fe"/></linearGradient><linearGradient id="b" gradientUnits="userSpaceOnUse" x1=".000056" x2="250" xlink:href="#a" y1="136.02" y2="136.02"/><linearGradient id="c" gradientUnits="userSpaceOnUse" x1=".000013" x2="250" xlink:href="#a" y1="113.979" y2="113.979"/><clipPath id="d"><path d="m0 0h250v250h-250z"/></clipPath><g clip-path="url(#d)"><path d="m30.3126 43.1849c1.5625-1.9375 3.1875-3.8125 4.8125-5.6875.0625-.0625.25-.125.3125-.1875.125-.1875.375-.3125.5625-.5l.125-.1875c1.125-1.0625 2.375-2.1875 3.75-3.25 5-3.75 10.125-6.625 15.5625-8.5625 17.5-6.125 36.9375-2.375 52.1874 12.0625 21.313 19.9375 19.375 52.125 2.375 73.4996-21.4999 31.875-58.3749 76.313-7.312 116.125 9.187 7.188 16 13.063 44.937 21.438-18.937 3.5-36.5 2.375-55.9999-2.563-13.8125-7.812-35.5625-24.5-42.9375-47.062-11.1875-34.188 19.6875-85.375 34.5625-105.0626 20.4379-27.25-12.625-56.75-37.0625-23.8125-12.625 17.1875-34.9375 65.7501-27.1875 101.8121 4.5 20.438 10.5625 35.313 34.5 55.813-4.4375-2.625-8.75-5.563-12.9375-8.938-55.5625-51.812-49.12504-131.9371-10.25-174.9371z" fill="url(#b)"/><path d="m219.688 206.814c-1.563 1.938-3.188 3.813-4.813 5.688-.063.062-.25.125-.313.187-.124.188-.374.313-.562.5l-.125.188c-1.125 1.062-2.375 2.187-3.75 3.187-5 3.75-10.125 6.625-15.563 8.563-17.5 6.125-36.937 2.375-52.187-12.063-21.312-19.937-19.375-52.125-2.375-73.5 21.5-31.875 58.375-76.3124 7.312-116.1249-9.187-7.1875-15.999-13.0625-44.937-21.4375 18.938-3.5 36.5-2.374996 56 2.5625 13.813 7.8125 35.563 24.5 42.938 47.0625 11.187 34.1875-19.688 85.3754-34.563 105.0624-20.438 27.25 12.625 56.75 37.063 23.813 12.75-17.188 35.062-65.75 27.312-101.8129-4.5-20.4375-10.562-35.3125-34.5-55.8125 4.438 2.625 8.75 5.5625 12.937 8.9375 55.438 51.875 49.001 131.9999 10.126 174.9999z" fill="url(#c)"/></g></svg>

<svg width="250" height="250" viewBox="0 0 250 250" fill="none" xmlns="http://www.w3.org/2000/svg">
<g clip-path="url(#clip0_48_12978)">
<path d="M30.3126 43.1849C31.8751 41.2474 33.5001 39.3724 35.1251 37.4974C35.1876 37.4349 35.3751 37.3724 35.4376 37.3099C35.5626 37.1224 35.8126 36.9974 36.0001 36.8099L36.1251 36.6224C37.2501 35.5599 38.5001 34.4349 39.8751 33.3724C44.8751 29.6224 50.0001 26.7474 55.4376 24.8099C72.9376 18.6849 92.3751 22.4349 107.625 36.8724C128.938 56.8099 127 88.9974 110 110.372C88.5001 142.247 51.6251 186.685 102.688 226.497C111.875 233.685 118.688 239.56 147.625 247.935C128.688 251.435 111.125 250.31 91.6251 245.372C77.8126 237.56 56.0626 220.872 48.6876 198.31C37.5001 164.122 68.3751 112.935 83.2501 93.2474C103.688 65.9974 70.6251 36.4974 46.1876 69.4349C33.5626 86.6224 11.2501 135.185 19.0001 171.247C23.5001 191.685 29.5626 206.56 53.5001 227.06C49.0626 224.435 44.7501 221.497 40.5626 218.122C-14.9999 166.31 -8.56244 86.1849 30.3126 43.1849Z" fill="url(#paint0_linear_48_12978)"/>
<path d="M219.688 206.814C218.125 208.752 216.5 210.627 214.875 212.502C214.812 212.564 214.625 212.627 214.562 212.689C214.438 212.877 214.188 213.002 214 213.189L213.875 213.377C212.75 214.439 211.5 215.564 210.125 216.564C205.125 220.314 200 223.189 194.562 225.127C177.062 231.252 157.625 227.502 142.375 213.064C121.063 193.127 123 160.939 140 139.564C161.5 107.689 198.375 63.2516 147.312 23.4391C138.125 16.2516 131.313 10.3766 102.375 2.0016C121.313 -1.4984 138.875 -0.373396 158.375 4.5641C172.188 12.3766 193.938 29.0641 201.313 51.6266C212.5 85.8141 181.625 137.002 166.75 156.689C146.312 183.939 179.375 213.439 203.813 180.502C216.563 163.314 238.875 114.752 231.125 78.6891C226.625 58.2516 220.563 43.3766 196.625 22.8766C201.063 25.5016 205.375 28.4391 209.562 31.8141C265 83.6891 258.563 163.814 219.688 206.814Z" fill="url(#paint1_linear_48_12978)"/>
</g>
<defs>
<linearGradient id="paint0_linear_48_12978" x1="5.5581e-05" y1="136.02" x2="250" y2="136.02" gradientUnits="userSpaceOnUse">
<stop stop-color="#0082FA"/>
<stop offset="1" stop-color="#00F2FE"/>
</linearGradient>
<linearGradient id="paint1_linear_48_12978" x1="1.34419e-05" y1="113.979" x2="250" y2="113.979" gradientUnits="userSpaceOnUse">
<stop stop-color="#0082FA"/>
<stop offset="1" stop-color="#00F2FE"/>
</linearGradient>
<clipPath id="clip0_48_12978">
<rect width="250" height="250" fill="white"/>
</clipPath>
</defs>
</svg>
